;FLAVOR:Makerbot
;TIME:3528
;Generated with Cura_SteamEngine 3.4.0
T0
M190 S60
M104 S200
M109 S200
M82 ;absolute extrusion mode
G28 ;Home
G1 Z15.0 F6000 ;Move the platform down 15mm
;Prime the extruder
G92 E0
G1 F200 E3
G92 E0
G92 E0
G1 F1500 E-6.5
;LAYER_COUNT:58
;LAYER:0
M127 T0
G0 F3600 X81.48 Y53.811 Z0.3
;TYPE:SKIRT
G1 F1500 E0
G1 F1800 X84.101 Y50.156 E0.22439
G1 X84.849 Y49.262 E0.28254
G1 X87.981 Y46.042 E0.50665
G1 X88.855 Y45.269 E0.56486
G1 X92.434 Y42.551 E0.78907
G1 X93.412 Y41.918 E0.84719
G1 X97.359 Y39.762 E1.07157
G1 X98.42 Y39.281 E1.12969
G1 X102.638 Y37.739 E1.35375
G1 X103.76 Y37.422 E1.41192
G1 X108.166 Y36.525 E1.63624
G1 X109.323 Y36.378 E1.69443
G1 X113.81 Y36.148 E1.91858
G1 X114.974 Y36.176 E1.97667
G1 X119.448 Y36.617 E2.20096
G1 X120.6 Y36.818 E2.2593
G1 X124.955 Y37.922 E2.48344
G1 X126.056 Y38.291 E2.54138
G1 X130.2 Y40.03 E2.76559
G1 X131.24 Y40.561 E2.82385
G1 X135.078 Y42.899 E3.04805
G1 X136.025 Y43.578 E3.10619
G1 X139.472 Y46.462 E3.33041
G1 X140.309 Y47.276 E3.38866
G1 X143.287 Y50.642 E3.61288
G1 X143.991 Y51.569 E3.67096
G1 X146.436 Y55.343 E3.8953
G1 X146.995 Y56.366 E3.95346
G1 X148.848 Y60.458 E4.17757
G1 X149.249 Y61.554 E4.23579
G1 X150.472 Y65.879 E4.46003
G1 X150.704 Y67.021 E4.51817
G1 X151.269 Y71.48 E4.74241
G1 X151.329 Y72.644 E4.80056
G1 X151.223 Y77.137 E5.02478
G1 X151.108 Y78.296 E5.08288
G1 X150.334 Y82.723 E5.3071
G1 X150.048 Y83.855 E5.36535
G1 X148.622 Y88.117 E5.58957
G1 X148.171 Y89.19 E5.64763
G1 X146.127 Y93.192 E5.87183
G1 X145.52 Y94.189 E5.93006
G1 X142.899 Y97.844 E6.15445
G1 X142.151 Y98.738 E6.2126
G1 X139.019 Y101.958 E6.43671
G1 X138.145 Y102.731 E6.49492
G1 X134.566 Y105.449 E6.71913
G1 X133.587 Y106.083 E6.77732
G1 X129.639 Y108.239 E7.00175
G1 X128.58 Y108.719 E7.05975
G1 X124.363 Y110.261 E7.28376
G1 X123.24 Y110.578 E7.34198
G1 X118.834 Y111.475 E7.56631
G1 X117.677 Y111.622 E7.62449
G1 X113.19 Y111.852 E7.84864
G1 X112.026 Y111.824 E7.90673
G1 X107.552 Y111.383 E8.13102
G1 X106.4 Y111.182 E8.18937
G1 X102.045 Y110.078 E8.41351
G1 X100.944 Y109.709 E8.47144
G1 X96.798 Y107.969 E8.69576
G1 X95.757 Y107.438 E8.75407
G1 X91.92 Y105.1 E8.97823
G1 X90.974 Y104.421 E9.03633
G1 X87.526 Y101.536 E9.26062
G1 X86.689 Y100.722 E9.31887
G1 X83.713 Y97.358 E9.54295
G1 X83.009 Y96.431 E9.60102
G1 X80.564 Y92.657 E9.82537
G1 X80.004 Y91.633 E9.8836
G1 X78.15 Y87.538 E10.10786
G1 X77.75 Y86.443 E10.16602
G1 X76.528 Y82.121 E10.3901
G1 X76.296 Y80.979 E10.44824
G1 X75.731 Y76.52 E10.67248
G1 X75.671 Y75.356 E10.73063
G1 X75.777 Y70.863 E10.95485
G1 X75.892 Y69.704 E11.01295
G1 X76.666 Y65.277 E11.23717
G1 X76.952 Y64.145 E11.29542
G1 X78.378 Y59.883 E11.51964
G1 X78.829 Y58.81 E11.5777
G1 X80.873 Y54.808 E11.8019
G1 X81.48 Y53.811 E11.86013
G0 F3600 X81.805 Y54.044
G1 F1800 X84.426 Y50.389 E12.08452
G1 X85.135 Y49.541 E12.13967
G1 X88.267 Y46.321 E12.36377
G1 X89.097 Y45.588 E12.41902
G1 X92.676 Y42.87 E12.64323
G1 X93.604 Y42.269 E12.69839
G1 X97.551 Y40.113 E12.92277
G1 X98.557 Y39.657 E12.97787
G1 X102.775 Y38.115 E13.20193
G1 X103.84 Y37.814 E13.25714
G1 X108.246 Y36.917 E13.48147
G1 X109.343 Y36.778 E13.53664
G1 X113.83 Y36.548 E13.76079
G1 X114.935 Y36.574 E13.81593
G1 X119.409 Y37.015 E14.04022
G1 X120.501 Y37.206 E14.09553
G1 X124.856 Y38.31 E14.31967
G1 X125.901 Y38.659 E14.37464
G1 X130.045 Y40.398 E14.59885
G1 X131.032 Y40.902 E14.65414
G1 X134.87 Y43.24 E14.87835
G1 X135.769 Y43.884 E14.93352
G1 X139.216 Y46.768 E15.15775
G1 X140.009 Y47.541 E15.213
G1 X142.987 Y50.907 E15.43722
G1 X143.656 Y51.786 E15.49233
G1 X146.101 Y55.56 E15.71667
G1 X146.631 Y56.531 E15.77186
G1 X148.484 Y60.623 E15.99597
G1 X148.864 Y61.662 E16.05116
G1 X150.087 Y65.987 E16.2754
G1 X150.307 Y67.071 E16.33058
G1 X150.872 Y71.53 E16.55482
G1 X150.929 Y72.635 E16.61002
G1 X150.823 Y77.128 E16.83424
G1 X150.714 Y78.227 E16.88934
G1 X149.94 Y82.654 E17.11355
G1 X149.669 Y83.728 E17.16882
G1 X148.243 Y87.99 E17.39303
G1 X147.815 Y89.008 E17.44813
G1 X145.771 Y93.01 E17.67232
G1 X145.195 Y93.956 E17.72758
G1 X142.574 Y97.611 E17.95197
G1 X141.865 Y98.459 E18.00711
G1 X138.733 Y101.679 E18.23122
G1 X137.903 Y102.412 E18.28646
G1 X134.324 Y105.13 E18.51067
G1 X133.396 Y105.732 E18.56586
G1 X129.448 Y107.888 E18.79028
G1 X128.442 Y108.343 E18.84537
G1 X124.225 Y109.885 E19.06938
G1 X123.16 Y110.186 E19.12459
G1 X118.754 Y111.083 E19.34892
G1 X117.657 Y111.222 E19.40409
G1 X113.17 Y111.452 E19.62824
G1 X112.065 Y111.426 E19.68338
G1 X107.591 Y110.985 E19.90767
G1 X106.499 Y110.794 E19.96298
G1 X102.144 Y109.69 E20.18712
G1 X101.098 Y109.34 E20.24215
G1 X96.952 Y107.6 E20.46647
G1 X95.965 Y107.096 E20.52176
G1 X92.128 Y104.758 E20.74593
G1 X91.23 Y104.114 E20.80106
G1 X87.782 Y101.229 E21.02536
G1 X86.989 Y100.457 E21.08057
G1 X84.013 Y97.093 E21.30465
G1 X83.344 Y96.214 E21.35976
G1 X80.899 Y92.44 E21.58411
G1 X80.369 Y91.468 E21.63934
G1 X78.515 Y87.373 E21.8636
G1 X78.135 Y86.334 E21.9188
G1 X76.913 Y82.012 E22.14288
G1 X76.693 Y80.929 E22.19801
G1 X76.128 Y76.47 E22.42225
G1 X76.071 Y75.365 E22.47745
G1 X76.177 Y70.872 E22.70167
G1 X76.286 Y69.773 E22.75677
G1 X77.06 Y65.346 E22.98098
G1 X77.331 Y64.272 E23.03625
G1 X78.757 Y60.01 E23.26046
G1 X79.185 Y58.992 E23.31556
G1 X81.229 Y54.99 E23.53975
G1 X81.805 Y54.044 E23.59501
G0 F3600 X82.13 Y54.277
G1 F1800 X84.751 Y50.622 E23.8194
G1 X85.422 Y49.82 E23.87157
G1 X88.554 Y46.6 E24.09567
G1 X89.338 Y45.906 E24.14791
G1 X92.917 Y43.188 E24.37212
G1 X93.795 Y42.62 E24.42429
G1 X97.742 Y40.464 E24.64867
G1 X98.695 Y40.033 E24.70085
G1 X102.913 Y38.491 E24.92491
G1 X103.92 Y38.206 E24.97712
G1 X108.326 Y37.309 E25.20145
G1 X109.364 Y37.177 E25.25365
G1 X113.851 Y36.947 E25.4778
G1 X114.896 Y36.972 E25.52995
G1 X119.37 Y37.413 E25.75424
G1 X120.403 Y37.594 E25.80656
G1 X124.758 Y38.698 E26.03071
G1 X125.747 Y39.028 E26.08272
G1 X129.891 Y40.767 E26.30693
G1 X130.824 Y41.244 E26.35921
G1 X134.662 Y43.582 E26.58342
G1 X135.512 Y44.191 E26.63559
G1 X138.959 Y47.075 E26.85981
G1 X139.71 Y47.806 E26.9121
G1 X142.688 Y51.172 E27.13632
G1 X143.32 Y52.004 E27.18845
G1 X145.765 Y55.778 E27.41279
G1 X146.267 Y56.696 E27.46499
G1 X148.12 Y60.788 E27.6891
G1 X148.479 Y61.771 E27.74131
G1 X149.702 Y66.096 E27.96555
G1 X149.91 Y67.121 E28.01773
G1 X150.475 Y71.58 E28.24196
G1 X150.529 Y72.625 E28.29417
G1 X150.423 Y77.118 E28.51839
G1 X150.32 Y78.159 E28.57058
G1 X149.546 Y82.586 E28.79479
G1 X149.289 Y83.601 E28.84703
G1 X147.863 Y87.863 E29.07125
G1 X147.459 Y88.826 E29.12335
G1 X145.415 Y92.828 E29.34754
G1 X144.87 Y93.723 E29.39982
G1 X142.249 Y97.378 E29.62421
G1 X141.578 Y98.18 E29.67638
G1 X138.446 Y101.4 E29.90048
G1 X137.662 Y102.094 E29.95272
G1 X134.083 Y104.812 E30.17693
G1 X133.204 Y105.381 E30.22917
G1 X129.256 Y107.537 E30.45359
G1 X128.305 Y107.967 E30.50566
G1 X124.088 Y109.509 E30.72967
G1 X123.08 Y109.794 E30.78194
G1 X118.674 Y110.691 E31.00626
G1 X117.636 Y110.823 E31.05846
G1 X113.149 Y111.053 E31.28262
G1 X112.104 Y111.028 E31.33477
G1 X107.63 Y110.587 E31.55906
G1 X106.597 Y110.406 E31.61138
G1 X102.242 Y109.302 E31.83552
G1 X101.253 Y108.972 E31.88754
G1 X97.107 Y107.232 E32.11186
G1 X96.174 Y106.755 E32.16414
G1 X92.337 Y104.417 E32.3883
G1 X91.487 Y103.808 E32.44047
G1 X88.039 Y100.923 E32.66477
G1 X87.288 Y100.192 E32.71705
G1 X84.312 Y96.828 E32.94113
G1 X83.68 Y95.996 E32.99326
G1 X81.235 Y92.222 E33.2176
G1 X80.733 Y91.303 E33.26985
G1 X78.879 Y87.208 E33.49411
G1 X78.52 Y86.226 E33.54628
G1 X77.298 Y81.904 E33.77035
G1 X77.09 Y80.879 E33.82253
G1 X76.525 Y76.42 E34.04677
G1 X76.471 Y75.375 E34.09898
G1 X76.577 Y70.882 E34.3232
G1 X76.68 Y69.841 E34.37539
G1 X77.454 Y65.414 E34.5996
G1 X77.711 Y64.399 E34.65184
G1 X79.137 Y60.137 E34.87605
G1 X79.541 Y59.174 E34.92816
G1 X81.585 Y55.172 E35.15235
G1 X82.13 Y54.277 E35.20463
G0 F3600 X82.456 Y54.51
G1 F1800 X85.077 Y50.855 E35.42902
G1 X85.709 Y50.099 E35.47818
G1 X88.841 Y46.879 E35.70228
G1 X89.58 Y46.225 E35.75152
G1 X93.159 Y43.507 E35.97573
G1 X93.987 Y42.971 E36.02494
G1 X97.934 Y40.815 E36.24932
G1 X98.832 Y40.408 E36.2985
G1 X103.05 Y38.866 E36.52256
G1 X103.999 Y38.598 E36.57176
G1 X108.405 Y37.701 E36.79608
G1 X109.384 Y37.577 E36.84532
G1 X113.871 Y37.347 E37.06947
G1 X114.856 Y37.37 E37.11862
G1 X119.33 Y37.811 E37.34291
G1 X120.305 Y37.981 E37.39229
G1 X124.66 Y39.085 E37.61644
G1 X125.592 Y39.397 E37.66547
G1 X129.736 Y41.136 E37.88968
G1 X130.616 Y41.585 E37.93897
G1 X134.454 Y43.923 E38.16318
G1 X135.255 Y44.498 E38.21237
G1 X138.702 Y47.382 E38.43659
G1 X139.41 Y48.071 E38.48588
G1 X142.388 Y51.437 E38.7101
G1 X142.984 Y52.221 E38.75923
G1 X145.429 Y55.995 E38.98358
G1 X145.902 Y56.861 E39.03281
G1 X147.755 Y60.953 E39.25692
G1 X148.094 Y61.88 E39.30616
G1 X149.317 Y66.205 E39.5304
G1 X149.514 Y67.171 E39.57958
G1 X150.079 Y71.63 E39.80382
G1 X150.129 Y72.616 E39.85308
G1 X150.023 Y77.109 E40.0773
G1 X149.926 Y78.09 E40.12648
G1 X149.152 Y82.517 E40.35069
G1 X148.91 Y83.474 E40.39994
G1 X147.484 Y87.736 E40.62416
G1 X147.103 Y88.644 E40.67328
G1 X145.059 Y92.646 E40.89748
G1 X144.544 Y93.49 E40.94681
G1 X141.923 Y97.145 E41.17119
G1 X141.291 Y97.901 E41.22035
G1 X138.159 Y101.121 E41.44446
G1 X137.42 Y101.775 E41.49369
G1 X133.841 Y104.493 E41.7179
G1 X133.012 Y105.03 E41.76718
G1 X129.064 Y107.186 E41.9916
G1 X128.168 Y107.592 E42.04068
G1 X123.951 Y109.134 E42.26469
G1 X123.001 Y109.402 E42.31394
G1 X118.595 Y110.299 E42.53826
G1 X117.616 Y110.423 E42.58749
G1 X113.129 Y110.653 E42.81165
G1 X112.144 Y110.63 E42.8608
G1 X107.67 Y110.189 E43.08509
G1 X106.695 Y110.019 E43.13447
G1 X102.34 Y108.915 E43.35861
G1 X101.408 Y108.603 E43.40765
G1 X97.262 Y106.863 E43.63197
G1 X96.382 Y106.413 E43.68128
G1 X92.545 Y104.075 E43.90545
G1 X91.744 Y103.501 E43.95461
G1 X88.296 Y100.616 E44.1789
G1 X87.588 Y99.927 E44.22819
G1 X84.612 Y96.563 E44.45227
G1 X84.016 Y95.779 E44.5014
G1 X81.571 Y92.005 E44.72575
G1 X81.098 Y91.138 E44.77502
G1 X79.244 Y87.043 E44.99929
G1 X78.905 Y86.117 E45.04848
G1 X77.683 Y81.795 E45.27256
G1 X77.486 Y80.829 E45.32175
G1 X76.921 Y76.37 E45.54599
G1 X76.871 Y75.384 E45.59524
G1 X76.977 Y70.891 E45.81946
G1 X77.074 Y69.91 E45.86864
G1 X77.848 Y65.483 E46.09286
G1 X78.09 Y64.526 E46.1421
G1 X79.516 Y60.264 E46.36632
G1 X79.897 Y59.356 E46.41545
G1 X81.941 Y55.354 E46.63964
G1 X82.456 Y54.51 E46.68897
G0 F3600 X82.781 Y54.743
G1 F1800 X85.402 Y51.088 E46.91336
G1 X85.996 Y50.378 E46.95954
G1 X89.128 Y47.158 E47.18365
G1 X89.822 Y46.543 E47.22991
G1 X93.401 Y43.825 E47.45412
G1 X94.179 Y43.322 E47.50034
G1 X98.126 Y41.166 E47.72472
G1 X98.969 Y40.784 E47.77089
G1 X103.187 Y39.242 E47.99495
G1 X104.079 Y38.99 E48.0412
G1 X108.485 Y38.093 E48.26552
G1 X109.405 Y37.976 E48.31179
G1 X113.892 Y37.746 E48.53594
G1 X114.817 Y37.768 E48.5821
G1 X119.291 Y38.209 E48.80639
G1 X120.207 Y38.369 E48.85279
G1 X124.562 Y39.473 E49.07693
G1 X125.437 Y39.766 E49.12297
G1 X129.581 Y41.505 E49.34718
G1 X130.408 Y41.927 E49.3935
G1 X134.246 Y44.265 E49.61771
G1 X134.998 Y44.805 E49.66389
G1 X138.445 Y47.689 E49.88812
G1 X139.111 Y48.336 E49.93444
G1 X142.089 Y51.702 E50.15866
G1 X142.648 Y52.439 E50.20481
G1 X145.093 Y56.213 E50.42916
G1 X145.538 Y57.026 E50.4754
G1 X147.391 Y61.118 E50.6995
G1 X147.709 Y61.989 E50.74576
G1 X148.932 Y66.314 E50.97
G1 X149.117 Y67.222 E51.01623
G1 X149.682 Y71.681 E51.24047
G1 X149.729 Y72.606 E51.28668
G1 X149.623 Y77.099 E51.5109
G1 X149.532 Y78.021 E51.55712
G1 X148.758 Y82.448 E51.78133
G1 X148.531 Y83.347 E51.82759
G1 X147.105 Y87.609 E52.05181
G1 X146.747 Y88.462 E52.09796
G1 X144.703 Y92.464 E52.32216
G1 X144.219 Y93.257 E52.36851
G1 X141.598 Y96.912 E52.5929
G1 X141.004 Y97.622 E52.63908
G1 X137.872 Y100.842 E52.86319
G1 X137.178 Y101.457 E52.90945
G1 X133.599 Y104.175 E53.13366
G1 X132.821 Y104.678 E53.17988
G1 X128.873 Y106.834 E53.4043
G1 X128.03 Y107.216 E53.45048
G1 X123.813 Y108.758 E53.67449
G1 X122.921 Y109.01 E53.72073
G1 X118.515 Y109.907 E53.94506
G1 X117.595 Y110.024 E53.99132
G1 X113.108 Y110.254 E54.21548
G1 X112.183 Y110.232 E54.26164
G1 X107.709 Y109.791 E54.48593
G1 X106.793 Y109.631 E54.53232
G1 X102.438 Y108.527 E54.75646
G1 X101.563 Y108.234 E54.8025
G1 X97.417 Y106.494 E55.02682
G1 X96.59 Y106.072 E55.07314
G1 X92.753 Y103.734 E55.29731
G1 X92 Y103.194 E55.34354
G1 X88.552 Y100.309 E55.56783
G1 X87.887 Y99.662 E55.61412
G1 X84.911 Y96.298 E55.8382
G1 X84.352 Y95.561 E55.88435
G1 X81.907 Y91.787 E56.1087
G1 X81.462 Y90.973 E56.15498
G1 X79.608 Y86.878 E56.37924
G1 X79.29 Y86.008 E56.42546
G1 X78.068 Y81.686 E56.64953
G1 X77.883 Y80.778 E56.69576
G1 X77.318 Y76.319 E56.92
G1 X77.271 Y75.394 E56.96621
G1 X77.377 Y70.901 E57.19043
G1 X77.468 Y69.979 E57.23665
G1 X78.242 Y65.552 E57.46087
G1 X78.469 Y64.653 E57.50713
G1 X79.895 Y60.391 E57.73134
G1 X80.253 Y59.538 E57.7775
G1 X82.297 Y55.536 E58.00169
G1 X82.781 Y54.743 E58.04804
G0 F3600 X83.106 Y54.976
G1 F1800 X85.727 Y51.321 E58.27243
G1 X86.282 Y50.657 E58.3156
G1 X89.414 Y47.437 E58.53971
G1 X90.064 Y46.862 E58.58301
G1 X93.643 Y44.144 E58.80722
G1 X94.371 Y43.673 E58.85048
G1 X98.318 Y41.517 E59.07485
G1 X99.107 Y41.16 E59.11806
G1 X103.325 Y39.618 E59.34212
G1 X104.159 Y39.382 E59.38536
G1 X108.565 Y38.485 E59.60969
G1 X109.425 Y38.376 E59.65293
G1 X113.912 Y38.146 E59.87709
G1 X114.778 Y38.166 E59.9203
G1 X119.252 Y38.607 E60.14459
G1 X120.108 Y38.757 E60.18795
G1 X124.463 Y39.861 E60.41209
G1 X125.282 Y40.135 E60.45518
G1 X129.426 Y41.874 E60.67939
G1 X130.199 Y42.269 E60.7227
G1 X134.037 Y44.607 E60.94691
G1 X134.742 Y45.112 E60.99017
G1 X138.189 Y47.996 E61.2144
G1 X138.811 Y48.601 E61.25769
G1 X141.789 Y51.967 E61.48191
G1 X142.313 Y52.656 E61.52509
G1 X144.758 Y56.43 E61.74944
G1 X145.174 Y57.191 E61.79271
G1 X147.027 Y61.283 E62.01682
G1 X147.324 Y62.098 E62.06009
G1 X148.547 Y66.423 E62.28433
G1 X148.72 Y67.272 E62.32755
G1 X149.285 Y71.731 E62.55179
G1 X149.329 Y72.597 E62.59505
G1 X149.223 Y77.09 E62.81927
G1 X149.138 Y77.952 E62.86249
G1 X148.364 Y82.379 E63.0867
G1 X148.151 Y83.22 E63.12998
G1 X146.725 Y87.482 E63.3542
G1 X146.39 Y88.28 E63.39738
G1 X144.346 Y92.282 E63.62158
G1 X143.894 Y93.024 E63.66492
G1 X141.273 Y96.679 E63.88931
G1 X140.718 Y97.343 E63.93248
G1 X137.586 Y100.563 E64.15659
G1 X136.936 Y101.138 E64.19989
G1 X133.357 Y103.856 E64.4241
G1 X132.629 Y104.327 E64.46736
G1 X128.681 Y106.483 E64.69178
G1 X127.893 Y106.84 E64.73494
G1 X123.676 Y108.382 E64.95895
G1 X122.841 Y108.618 E65.00224
G1 X118.435 Y109.515 E65.22656
G1 X117.575 Y109.624 E65.26981
G1 X113.088 Y109.854 E65.49396
G1 X112.222 Y109.834 E65.53718
G1 X107.748 Y109.393 E65.76147
G1 X106.892 Y109.243 E65.80483
G1 X102.537 Y108.139 E66.02897
G1 X101.717 Y107.865 E66.07211
G1 X97.571 Y106.125 E66.29643
G1 X96.798 Y105.73 E66.33974
G1 X92.961 Y103.392 E66.5639
G1 X92.257 Y102.887 E66.60713
G1 X88.809 Y100.002 E66.83142
G1 X88.187 Y99.397 E66.87471
G1 X85.211 Y96.033 E67.09879
G1 X84.687 Y95.344 E67.14198
G1 X82.242 Y91.57 E67.36632
G1 X81.826 Y90.808 E67.40964
G1 X79.972 Y86.713 E67.6339
G1 X79.675 Y85.899 E67.67713
G1 X78.453 Y81.577 E67.90121
G1 X78.28 Y80.728 E67.94444
G1 X77.715 Y76.269 E68.16867
G1 X77.671 Y75.403 E68.21193
G1 X77.777 Y70.91 E68.43615
G1 X77.862 Y70.048 E68.47937
G1 X78.636 Y65.621 E68.70358
G1 X78.849 Y64.78 E68.74686
G1 X80.275 Y60.518 E68.97108
G1 X80.61 Y59.72 E69.01426
G1 X82.654 Y55.718 E69.23846
G1 X83.106 Y54.976 E69.2818
G0 F3600 X83.431 Y55.209
G1 F1800 X86.052 Y51.554 E69.50619
G1 X86.569 Y50.936 E69.54639
G1 X89.701 Y47.716 E69.77049
G1 X90.306 Y47.181 E69.81079
